X:1
T:Title
%%score { 1 | ( 2 3 ) }
L:1/8
M:4/4
K:A
V:1 treble nm="Grand Piano"
V:2 bass 
V:3 bass 
V:1
 z4 z2[Q:1/4=104] E2 | [Ec]2 [DB]2 [CA]2 [A,EG]2 | .[DFB]2 [EG][DF] [CE]2 [EA]2 | %3
 [EG]2 [EA]2 [Gd]2 [Ac]2 |[M:3/4] [Ac]4 B2 |[M:1/4] E2 |[M:4/4] [Ec]2 [DB]2 [CA]2 [A,EG]2 | %7
 .[DFB]2 [EG]F [A,CE]2 [A,E]2 | [A,DF]2 [DFA]2 [B,EA]2 [DEG]2 |[M:3/4] [A,EA]6 |[M:1/4] E2 | %11
[M:4/4] d2 c2 B2 c2 | B2 A2 G2 [GB]2 | c2 e2 d2 c2 |[M:3/4] [Ac]4 B2 |[M:1/4] E2 | %16
[M:4/4] [Ec]2 [DB]2 [CA]2 [A,EG]2 | .[DFB]2 [EG]F [A,CE]2 [A,E]2 | [A,DF]2 [DFA]2 [B,EA]2 [DEG]2 | %19
[M:7/4] [A,EA]6 z2 z2 z4 |] %20
V:2
 z4 z2 E,2 | [A,,A,]2 [A,,A,]2 [A,,A,]2 C,2 | z A [D,A,]2 [A,,A,]2 [C,A,]2 | %3
 [E,B,]2 [E,C]2 [E,E]2 [E,E]2 |[M:3/4] z2 z2 G2 |[M:1/4] E,2 | %6
[M:4/4] [A,,A,]2 [A,,A,]2 [A,,A,]2 C,2 | z A z D A,,2 C,2 | D,2 D,2 E,2 E,2 |[M:3/4] A,,6 | %10
[M:1/4] E,2 |[M:4/4] [E,B,E]2 [E,A,E]2 [E,G,E]2 [E,A,E]2 | [E,DE]2 [E,CE]2 [E,B,E]2 [E,E]2 | %13
 [A,EA]2 [CEA]2 [B,EG]2 [A,EA]2 |[M:3/4][K:bass] z2 z2 G2 |[M:1/4] E,2 | %16
[M:4/4] [A,,A,]2 [A,,A,]2 [A,,A,]2 C,2 | z A z D A,,2 C,2 | D,2 D,2 E,2 E,2 | %19
[M:7/4] A,,6 z2 z2 z4 |] %20
V:3
 x8 | x8 | D,2 z2 z4 | x8 |[M:3/4] [E,E]6 |[M:1/4] x2 |[M:4/4] x8 | D,2 [D,A,]2 z4 | x8 | %9
[M:3/4] x6 |[M:1/4] x2 |[M:4/4] x8 | x8 | x8 |[M:3/4][K:bass] [E,E]6 |[M:1/4] x2 |[M:4/4] x8 | %17
 D,2 [D,A,]2 z4 | x8 |[M:7/4] x14 |] %20

